X:1
T:Title
%%score { ( 1 5 6 ) | ( 2 3 4 ) }
L:1/8
M:4/4
K:A
V:1 treble nm="Grand Piano"
V:5 treble 
V:6 treble 
V:2 bass 
V:3 bass 
V:4 bass 
V:1
 z4 z2 z[Q:1/4=82] E | [Ec]2 =c2 [E^c]3 [A,EA] | [FA]A[EG]F [CE]3 c | [Ec]B[DF][DG] [DB]AEF | %4
 GA[B,G]F[K:bass] [G,E]3[K:treble] E | Ed[Fd]d [Fd]c[Ec]c | [^Ec]GcB [FA]3 A | %7
 [FA]A[EG]F [CE]A[Fd][Ec] |[M:7/8] [^Dc]BF G [CA]3 |[M:1/8][Q:1/4=96] c |[M:4/4] z2 B4 z2 | %11
 B2 [CA]4 [EG][EG] | z4 z2 [FB]2 |[M:3/4] [^Ec]6 |[M:1/4] [Ec]2 |[M:4/4] [Ed]3 [Ed] [Ec]2 [EB]2 | %16
 [Ee]2 d2 c2 A2 | %17
 .d2 .c2 [FB]F,BD[Q:1/4=95][Q:1/4=93][Q:1/4=92][Q:1/4=90][Q:1/4=89][Q:1/4=87][Q:1/4=86][Q:1/4=84][Q:1/4=83][Q:1/4=81][Q:1/4=80][Q:1/4=78][Q:1/4=77][Q:1/4=75][Q:1/4=74] | %18
[M:7/8] [CA]-[CA]-[CA]- [CA]3 z |] %19
V:2
 z4 z2 z C | E,2 [F,^D]2 [A,,E,]3 C, | z[K:treble] F z D[K:bass] A,,E,A,E | %3
 z DG,B, z C[A,C][E,=C] | B,C z A, E,,B,, .E,2 | E,-[E,-E]E,-[E,G] z E z E | %6
 z[K:treble] ^E[G,E][CG][K:bass] [F,C]C,F,,F | z[K:treble] F z D[K:bass] z C A,2 | %8
[M:7/8] z ^D=D DA,, E,A,, |[M:1/8] E |[M:4/4] [E,A,E]2 D2- DDDE | [E,G,D]2 [A,,A,]4 [C,A,][C,A,] | %12
 [D,A,]2 [D,A,]2 [D,A,]2 .[D,G,]2 |[M:3/4] [C,G,]6 |[M:1/4] [C,G,]2 | %15
[M:4/4] [B,,G,]3 [B,,G,] [E,G,]2 [D,G,]2 | [C,A,]2 [E,G,E]2 [A,E]2 [=G,A,C]2 | %17
 .[F,A,D]2 .[E,A,E]2 .[D,A,]2 .[E,G,E]2 |[M:7/8] [A,,A,]-[A,,A,]-[A,,A,]- [A,,A,]3 z |] %19
V:3
 x8 | A,,4 z4 | z2[K:treble] A,4[K:bass] z2 | E,4 A,,4 | z2 ^D,2 z4 | z4 z2 A,2 | %6
 C,4[K:treble][K:bass] z4 | z2[K:treble] A,2[K:bass] z4 |[M:7/8] [B,,A,]2 [E,B,]2 z z2 |[M:1/8] x | %10
[M:4/4] z2 [E,G,]2 E,2 [E,G,]2 | x8 | x8 |[M:3/4] x6 |[M:1/4] x2 |[M:4/4] x8 | x8 | x8 | %18
[M:7/8] x7 |] %19
V:4
 x8 | x8 | D,4[K:treble][K:bass] z4 | x8 | B,,4 z4 | G,2 B,2 A,,4 | x[K:treble] x3[K:bass] x4 | %7
 D,4[K:treble][K:bass] A,,4 |[M:7/8] x7 |[M:1/8] x |[M:4/4] x8 | x8 | x8 |[M:3/4] x6 |[M:1/4] x2 | %15
[M:4/4] x8 | x8 | x8 |[M:7/8] x7 |] %19
V:5
 x8 | x8 | x8 | x8 | z4[K:bass] .E,2 z2[K:treble] | x8 | x8 | x8 |[M:7/8] z z z2 A, z2 |[M:1/8] x | %10
[M:4/4] c2 z2 z FGc | x8 | [DF]2 [EG]2 [FA]2 z F, |[M:3/4] x6 |[M:1/4] x2 |[M:4/4] x8 | x8 | x8 | %18
[M:7/8] x7 |] %19
V:6
 x8 | x8 | x8 | x8 | x4[K:bass] x3[K:treble] x | x8 | x8 | x8 |[M:7/8] x7 |[M:1/8] x | %10
[M:4/4] z4 G,2 z2 | x8 | x8 |[M:3/4] x6 |[M:1/4] x2 |[M:4/4] x8 | x8 | x8 |[M:7/8] x7 |] %19

